Dominus_Dark_Funeral/scalable/apps/telegram.svg

<svg xmlns="http://www.w3.org/2000/svg" xmlns:xlink="http://www.w3.org/1999/xlink" width="48" height="48"><defs><linearGradient id="c"><stop offset="0" stop-color="#41b4e6"/><stop offset=".24" stop-color="#87deaa"/><stop offset=".59" stop-color="#37c8ab"/><stop offset=".77" stop-color="#afc"/><stop offset="1" stop-color="#2ad4ff"/></linearGradient><linearGradient id="b"><stop offset="0"/><stop offset="1" stop-opacity="0"/></linearGradient><linearGradient id="a"><stop offset="0"/><stop offset="1" stop-opacity="0"/></linearGradient><linearGradient xlink:href="#b" id="e" x1="10.49" y1="3.89" x2="49.86" y2="44.44" gradientUnits="userSpaceOnUse"/><linearGradient xlink:href="#c" id="d" x1="3.8" y1="24" x2="44.22" y2="24" gradientUnits="userSpaceOnUse"/></defs><path d="M24 .35c-5.83 0-10.5 1.1-13.93 3.32C5.97 6.34 3.8 10.6 3.8 15.96c0 7.21 5.8 16.87 7.58 19.66a54.47 54.47 0 0 0 6.26 8.17c2.54 2.63 4.57 3.86 6.37 3.86 1.8 0 3.83-1.23 6.37-3.87 2-2.08 4.22-4.98 6.25-8.16 1.78-2.78 7.59-12.44 7.59-19.66 0-5.38-2.18-9.63-6.28-12.28C34.54 1.45 29.86.34 24 .34z" fill="url(#d)"/><path d="M24 .34c-5.83 0-10.52 1.12-13.93 3.33-4.1 2.66-6.27 6.9-6.27 12.27 0 7.23 5.8 16.88 7.58 19.67a54.48 54.48 0 0 0 6.25 8.16c2.54 2.64 4.57 3.87 6.37 3.87 1.8 0 3.83-1.23 6.37-3.87 2-2.08 4.22-4.97 6.25-8.16 1.78-2.79 7.58-12.44 7.58-19.67 0-5.37-2.16-9.61-6.26-12.27C34.52 1.46 29.84.34 24 .34zm0 .14c2.11.09 4.12.27 5.88.7 1.16.27 2.25.62 3.26 1.03 1.01.42 1.94.9 2.8 1.46a12.92 12.92 0 0 1 4.66 5.12c.53 1.03.92 2.15 1.2 3.34.26 1.2.4 2.47.4 3.8 0 1.82-.37 3.77-.94 5.74a43.19 43.19 0 0 1-2.2 5.77 69.59 69.59 0 0 1-4.45 8.17 54.47 54.47 0 0 1-6.25 8.16 17.98 17.98 0 0 1-3.46 2.93c-.32.2-.62.3-.91.39-.3-.08-.6-.2-.9-.4-1.06-.63-2.2-1.6-3.47-2.92-2-2.08-4.22-4.97-6.25-8.16a69.6 69.6 0 0 1-4.46-8.17 43.19 43.19 0 0 1-2.19-5.77 20.93 20.93 0 0 1-.93-5.73c0-1.34.13-2.61.4-3.8.27-1.2.67-2.32 1.2-3.35a12.92 12.92 0 0 1 4.67-5.12 17.1 17.1 0 0 1 2.8-1.46c1-.41 2.1-.76 3.26-1.04C19.88.75 21.89.57 24 .49z" opacity=".2"/><path d="M31.18 42.73a54.57 54.57 0 0 0 5.45-7.12c.9-1.4 2.79-4.5 4.46-8.16.84-1.84 1.62-3.8 2.2-5.77.57-1.97.93-3.93.93-5.73 0-.28-.07-.53-.09-.8l-7.18-7.18L8.13 19.3l11.03 11.03.14.52z" fill="url(#e)"/><path fill="#dbe2e3" d="M31.31 32.03l5.64-24.06L8.14 19.3l8.77 2.9 16-10.73L20.15 23.6z"/><path fill="#93a7ac" d="M19.3 30.85l.85-7.25L32.9 11.47l-16 10.73z"/><path fill="#6f8a91" d="M19.3 30.85l.85-7.25 3.63 2.74z"/></svg>

<?xml version="1.0" encoding="UTF-8" standalone="no"?>
<svg
   xmlns:dc="http://purl.org/dc/elements/1.1/"
   xmlns:cc="http://creativecommons.org/ns#"
   xmlns:rdf="http://www.w3.org/1999/02/22-rdf-syntax-ns#"
   xmlns:svg="http://www.w3.org/2000/svg"
   xmlns="http://www.w3.org/2000/svg"
   xmlns:xlink="http://www.w3.org/1999/xlink"
   xmlns:sodipodi="http://sodipodi.sourceforge.net/DTD/sodipodi-0.dtd"
   xmlns:inkscape="http://www.inkscape.org/namespaces/inkscape"
   width="48"
   height="48"
   version="1.1"
   id="svg39"
   sodipodi:docname="telegram.svg"
   inkscape:version="0.92.4 (5da689c313, 2019-01-14)">
  <metadata
     id="metadata43">
    <rdf:RDF>
      <cc:Work
         rdf:about="">
        <dc:format>image/svg+xml</dc:format>
        <dc:type
           rdf:resource="http://purl.org/dc/dcmitype/StillImage" />
        <dc:title></dc:title>
      </cc:Work>
    </rdf:RDF>
  </metadata>
  <sodipodi:namedview
     pagecolor="#ffffff"
     bordercolor="#666666"
     borderopacity="1"
     objecttolerance="10"
     gridtolerance="10"
     guidetolerance="10"
     inkscape:pageopacity="0"
     inkscape:pageshadow="2"
     inkscape:window-width="1112"
     inkscape:window-height="480"
     id="namedview41"
     showgrid="false"
     inkscape:zoom="4.9166667"
     inkscape:cx="2.1355932"
     inkscape:cy="24"
     inkscape:window-x="0"
     inkscape:window-y="25"
     inkscape:window-maximized="0"
     inkscape:current-layer="svg39" />
  <defs
     id="defs25">
    <linearGradient
       id="c">
      <stop
         offset="0"
         stop-color="#41b4e6"
         id="stop2" />
      <stop
         offset=".24"
         stop-color="#87deaa"
         id="stop4" />
      <stop
         offset=".59"
         stop-color="#37c8ab"
         id="stop6" />
      <stop
         offset=".77"
         stop-color="#afc"
         id="stop8" />
      <stop
         offset="1"
         stop-color="#2ad4ff"
         id="stop10" />
    </linearGradient>
    <linearGradient
       id="b">
      <stop
         offset="0"
         id="stop13" />
      <stop
         offset="1"
         stop-opacity="0"
         id="stop15" />
    </linearGradient>
    <linearGradient
       id="a">
      <stop
         offset="0"
         id="stop18" />
      <stop
         offset="1"
         stop-opacity="0"
         id="stop20" />
    </linearGradient>
    <linearGradient
       xlink:href="#b"
       id="e"
       x1="10.49"
       y1="3.89"
       x2="49.86"
       y2="44.44"
       gradientUnits="userSpaceOnUse" />
    <linearGradient
       xlink:href="#c"
       id="d"
       x1="3.8"
       y1="24"
       x2="44.22"
       y2="24"
       gradientUnits="userSpaceOnUse" />
  </defs>
  <path
     d="m 24,0.35 c -5.83,0 -10.5,1.1 -13.93,3.32 -4.1,2.67 -6.27,6.93 -6.27,12.29 0,7.21 5.8,16.87 7.58,19.66 a 54.47,54.47 0 0 0 6.26,8.17 c 2.54,2.63 4.57,3.86 6.37,3.86 1.8,0 3.83,-1.23 6.37,-3.87 2,-2.08 4.22,-4.98 6.25,-8.16 1.78,-2.78 7.59,-12.44 7.59,-19.66 0,-5.38 -2.18,-9.63 -6.28,-12.28 C 34.54,1.45 29.86,0.34 24,0.34 Z"
     id="path27"
     style="fill:url(#d)"
     inkscape:connector-curvature="0" />
  <path
     d="m 24,0.34 c -5.83,0 -10.52,1.12 -13.93,3.33 -4.1,2.66 -6.27,6.9 -6.27,12.27 0,7.23 5.8,16.88 7.58,19.67 a 54.48,54.48 0 0 0 6.25,8.16 c 2.54,2.64 4.57,3.87 6.37,3.87 1.8,0 3.83,-1.23 6.37,-3.87 2,-2.08 4.22,-4.97 6.25,-8.16 C 38.4,32.82 44.2,23.17 44.2,15.94 44.2,10.57 42.04,6.33 37.94,3.67 34.52,1.46 29.84,0.34 24,0.34 Z m 0,0.14 c 2.11,0.09 4.12,0.27 5.88,0.7 1.16,0.27 2.25,0.62 3.26,1.03 1.01,0.42 1.94,0.9 2.8,1.46 a 12.92,12.92 0 0 1 4.66,5.12 c 0.53,1.03 0.92,2.15 1.2,3.34 0.26,1.2 0.4,2.47 0.4,3.8 0,1.82 -0.37,3.77 -0.94,5.74 a 43.19,43.19 0 0 1 -2.2,5.77 69.59,69.59 0 0 1 -4.45,8.17 54.47,54.47 0 0 1 -6.25,8.16 17.98,17.98 0 0 1 -3.46,2.93 c -0.32,0.2 -0.62,0.3 -0.91,0.39 -0.3,-0.08 -0.6,-0.2 -0.9,-0.4 -1.06,-0.63 -2.2,-1.6 -3.47,-2.92 -2,-2.08 -4.22,-4.97 -6.25,-8.16 A 69.6,69.6 0 0 1 8.91,27.44 43.19,43.19 0 0 1 6.72,21.67 20.93,20.93 0 0 1 5.79,15.94 c 0,-1.34 0.13,-2.61 0.4,-3.8 0.27,-1.2 0.67,-2.32 1.2,-3.35 a 12.92,12.92 0 0 1 4.67,-5.12 17.1,17.1 0 0 1 2.8,-1.46 c 1,-0.41 2.1,-0.76 3.26,-1.04 1.76,-0.42 3.77,-0.6 5.88,-0.68 z"
     id="path29"
     inkscape:connector-curvature="0"
     style="opacity:0.2" />
  <path
     d="m 31.18,42.73 a 54.57,54.57 0 0 0 5.45,-7.12 c 0.9,-1.4 2.79,-4.5 4.46,-8.16 0.84,-1.84 1.62,-3.8 2.2,-5.77 0.57,-1.97 0.93,-3.93 0.93,-5.73 0,-0.28 -0.07,-0.53 -0.09,-0.8 L 36.95,7.97 8.13,19.3 19.16,30.33 19.3,30.85 Z"
     id="path31"
     style="fill:url(#e)"
     inkscape:connector-curvature="0" />
  <path
     d="M 31.31,32.03 36.95,7.97 8.14,19.3 l 8.77,2.9 16,-10.73 -12.76,12.13 z"
     id="path33"
     inkscape:connector-curvature="0"
     style="fill:#dbe2e3" />
  <path
     d="M 19.3,30.85 20.15,23.6 32.9,11.47 16.9,22.2 Z"
     id="path35"
     inkscape:connector-curvature="0"
     style="fill:#93a7ac" />
  <path
     d="m 19.3,30.85 0.85,-7.25 3.63,2.74 z"
     id="path37"
     inkscape:connector-curvature="0"
     style="fill:#6f8a91" />
</svg>
